public/images/poses-lg/Hero.svg

<svg width="800" height="800" fill="none" xmlns="http://www.w3.org/2000/svg"><path d="m442.432 649.507 28.388 36.207s25.806 14.824 28.181 24.327c2.376 9.503-7.127 4.752-7.127 4.752l-47.514-45.138-1.928-20.148Z" fill="#fff" stroke="#000" stroke-width="5" stroke-miterlimit="10"/><path d="m442.432 649.507 28.388 36.207s25.806 14.824 28.181 24.327c2.376 9.503-7.127 4.752-7.127 4.752l-47.514-45.138-1.928-20.148Z" stroke="#000" stroke-width="5" stroke-miterlimit="10"/><path d="M444.606 670.092c-2.835-15.586-4.267-53.808-.742-74.01 1.459-8.384 17.524-37.979 2.872-61.84-17.106-27.856-43.035-72.519-31.425-91.201 8.427-13.554-24.548-23.558-24.548-23.558s5.246 33.654-2.329 47.314c-7.57 13.661-26.95 29.302-26.761 58.604.186 29.297 6.718 54.242 7.708 76.811.989 22.569-7.504 61.615-10.546 69.82l38.011 40.387 47.76-42.327Z" fill="#fff" stroke="#000" stroke-width="5" stroke-miterlimit="10"/><path d="M444.606 670.092c-2.835-15.586-4.267-53.808-.742-74.01 1.459-8.384 17.524-37.979 2.872-61.84-17.106-27.856-43.035-72.519-31.425-91.201 8.427-13.554-24.548-23.558-24.548-23.558s5.246 33.654-2.329 47.314c-7.57 13.661-26.95 29.302-26.761 58.604.186 29.297 6.718 54.242 7.708 76.811.989 22.569-7.504 61.615-10.546 69.82l38.011 40.387 47.76-42.327Z" stroke="#000" stroke-width="5" stroke-miterlimit="10"/><path d="M364.074 557.736c14.483 9.206 33.534 16.045 48.056 1.524 0 0 17.771-21.802 8.104-42.402-12.609-26.857-47.938-26.857-47.938-26.857" stroke="#000" stroke-width="5" stroke-miterlimit="10"/><path d="M376.671 483.506s35.573 4.475 45.959 24.471c3.868 7.443 12.227 14.385 16.978 12.009" stroke="#000" stroke-width="5" stroke-miterlimit="10"/><path d="M383.279 383.379c-4.087-15.158-22.616-49.095-56.309-22.107-21.389 17.133-55.396 39.591-79.152 31.55-23.762-8.038-9.491 48.947 23.223 54.45s65.173-11.878 76.333-38.189c11.159-26.309 35.905-25.704 35.905-25.704Z" fill="#100200" stroke="#000" stroke-width="5" stroke-miterlimit="10"/><path d="M390.318 436.748c-5.109-6.918-2.455-14.667-5.012-23.775-4.063-14.465 12.12-31.171 28.876-32.242 22.126-1.412 32.728 76.96 20.165 79.862-7.441 1.717-21.952-2.969-33.46-14.265-3.702-3.631-10.569-9.58-10.569-9.58Z" fill="#fff" stroke="#000" stroke-width="5" stroke-miterlimit="10"/><path d="M390.318 436.748c-5.109-6.918-2.455-14.667-5.012-23.775-4.063-14.465 12.12-31.171 28.876-32.242 22.126-1.412 32.728 76.96 20.165 79.862-7.441 1.717-21.952-2.969-33.46-14.265-3.702-3.631-10.569-9.58-10.569-9.58Z" stroke="#000" stroke-width="5" stroke-miterlimit="10"/><path d="M424.49 388.773c1.383 13.806-5.738 39.955-23.572 37.526-20.052-2.731-10.721 7.934-8.754 11.41 1.967 3.475 12.25 9.254 10.439 10.528-1.813 1.276-29.83-5.42-34.864-24.963-5.036-19.544-1.448-30.474 8.118-37.834 9.564-7.362 30.829-10.999 41.867-5.892 11.039 5.106 6.766 9.225 6.766 9.225Z" fill="#100200" stroke="#000" stroke-width="5" stroke-miterlimit="10"/><path d="M363.587 650.649c16.824-33.64 72.078 20.057 80.773 19.005 16.63 4.752 106.906 80.774 116.408 97.403 5.897 10.314 2.376 11.878 0 16.629-2.375 4.751-4.751 9.503-38.01 9.503-33.26 0-95.028-21.38-106.906-28.508s-26.133-7.127-30.884-7.127c-4.751 0-9.503 9.503-9.503 9.503s-4.751 9.503 0 14.254c4.752 4.751 2.376 4.751 2.376 4.751s-19.006 2.375-21.381-2.376c-2.375-4.751-2.375-7.126-2.375-14.254 0-7.127 4.751-9.503 4.751-16.629 0-7.127 0-11.878 2.376-16.629 2.375-4.752 11.878 0 11.878 0l26.132 7.126c-9.503-2.375-16.629-4.751-16.629-4.751-8.248-2.746-14.19-3.956-19.006-7.127 0 0-16.629-14.254-16.629-33.26 0-19.005 7.127-30.883 7.127-30.883s7.126-11.879 9.502-16.63Z" fill="#fff" stroke="#000" stroke-width="5" stroke-miterlimit="10"/><path d="M363.587 650.649c16.824-33.64 72.078 20.057 80.773 19.005 16.63 4.752 106.906 80.774 116.408 97.403 5.897 10.314 2.376 11.878 0 16.629-2.375 4.751-4.751 9.503-38.01 9.503-33.26 0-95.028-21.38-106.906-28.508s-26.133-7.127-30.884-7.127c-4.751 0-9.503 9.503-9.503 9.503s-4.751 9.503 0 14.254c4.752 4.751 2.376 4.751 2.376 4.751s-19.006 2.375-21.381-2.376c-2.375-4.751-2.375-7.126-2.375-14.254 0-7.127 4.751-9.503 4.751-16.629 0-7.127 0-11.878 2.376-16.629 2.375-4.752 11.878 0 11.878 0l26.132 7.126c-9.503-2.375-16.629-4.751-16.629-4.751-8.248-2.746-14.19-3.956-19.006-7.127 0 0-16.629-14.254-16.629-33.26 0-19.005 7.127-30.883 7.127-30.883s7.126-11.879 9.502-16.63Z" stroke="#000" stroke-width="5" stroke-miterlimit="10"/><path d="M513.255 778.935s-32.067-20.61-75.957-25.859a43.243 43.243 0 0 1-4.849-.844c-7.939-1.895-32.903-7.934-35.218-9.475" stroke="#000" stroke-width="5" stroke-miterlimit="10"/><path d="M372.5 490.5s-5.568 5.249-8.427 17.366c-2.627 11.131-10.856 52.107 17.254 110.241 4.765 9.856 11.519 18.6 19.694 25.878 16.404 14.604 45.408 40.994 50.466 49.426 7.127 11.877 35.635 26.132 40.386 28.508 4.751 2.375 9.503-2.376 7.127-7.127-2.376-4.752-35.635-38.011-40.386-38.011-4.202 0-25.118-26.307-41.403-48.832a41.587 41.587 0 0 1-7.544-19.128c-2.209-17.237-6.362-51.379-8.069-76.957" fill="#fff"/><path d="M372.5 490.5s-5.568 5.249-8.427 17.366c-2.627 11.131-10.856 52.107 17.254 110.241 4.765 9.856 11.519 18.6 19.694 25.878 16.404 14.604 45.408 40.994 50.466 49.426 7.127 11.877 35.635 26.132 40.386 28.508 4.751 2.375 9.503-2.376 7.127-7.127-2.376-4.752-35.635-38.011-40.386-38.011-4.202 0-25.118-26.307-41.403-48.832a41.587 41.587 0 0 1-7.544-19.128c-2.209-17.237-6.362-51.379-8.069-76.957" stroke="#000" stroke-width="5" stroke-miterlimit="10"/><path d="M372 492.5c-4.952 2.352-4.493 8.281-6.071 13.125-1.434 4.956-2.362 10.361-2.967 15.623a144.36 144.36 0 0 0 .128 32.021c2.356 21.315 9.025 41.996 18.079 61.419 4.25 9.804 10.507 18.576 18.163 25.956 7.894 7.201 16.049 14.398 23.93 21.748 7.901 7.367 15.783 14.75 23.192 22.704 1.849 2.007 3.655 4.037 5.311 6.333l2.266 3.262c.85.971 1.646 1.982 2.601 2.877 3.728 3.68 8.055 6.849 12.491 9.809 4.452 2.952 9.067 5.689 13.767 8.273a272.49 272.49 0 0 0 7.108 3.768c1.15.559 2.52 1.353 3.391 1.587.984.257 2.019.167 2.882-.325 1.791-.971 2.483-3.299 1.507-5.185-.443-.848-1.389-1.967-2.204-2.95a110.996 110.996 0 0 0-2.642-2.995c-3.607-3.951-7.38-7.791-11.199-11.57-3.824-3.774-7.721-7.48-11.712-11.059-1.999-1.783-4.022-3.537-6.096-5.189a50.408 50.408 0 0 0-3.147-2.341 17.332 17.332 0 0 0-1.572-.931c-.177-.057-.555-.254-.543-.204a.124.124 0 0 1-.047-.028l-.446-.06a2.592 2.592 0 0 1-.801-.237c-1.677-.77-2.588-1.707-3.686-2.636a63.886 63.886 0 0 1-2.963-2.895c-1.902-1.967-3.708-3.997-5.489-6.045-3.555-4.103-6.964-8.302-10.328-12.536a692.912 692.912 0 0 1-19.471-25.966 42.89 42.89 0 0 1-6.509-15.285c-.594-2.756-.812-5.459-1.171-8.12l-.977-8.034c-2.542-21.439-4.91-42.899-6.363-64.47l-.078-1.183 2.362-.158.087 1.186c1.54 21.474 4 42.908 6.63 64.303l1.01 8.022c.374 2.682.61 5.364 1.171 7.881a40.03 40.03 0 0 0 6.148 14.275 717.47 717.47 0 0 0 19.455 25.728c3.339 4.218 6.726 8.399 10.232 12.455 1.751 2.023 3.529 4.029 5.372 5.939a62.044 62.044 0 0 0 2.817 2.763c.928.828 2.032 1.768 2.831 2.104.1.052.183.082.157.06.022.002-.039.012.052.028l.449.062c.696.103.901.3 1.358.462.691.352 1.315.736 1.909 1.127a55.115 55.115 0 0 1 3.339 2.487c2.144 1.713 4.192 3.494 6.213 5.309 4.037 3.629 7.95 7.364 11.8 11.173 3.842 3.812 7.626 7.678 11.284 11.698a115.243 115.243 0 0 1 2.708 3.072c.881 1.104 1.759 2.016 2.585 3.55.717 1.466.934 3.283.445 4.932-.454 1.665-1.652 3.052-3.127 3.896-1.488.85-3.34 1.012-4.951.575-1.715-.538-2.659-1.206-3.935-1.804a273.597 273.597 0 0 1-7.177-3.819c-4.747-2.621-9.419-5.396-13.952-8.409-4.518-3.033-8.941-6.266-12.897-10.173-1.004-.953-1.891-2.065-2.81-3.128l-2.345-3.382c-1.496-2.079-3.271-4.098-5.078-6.058-7.283-7.845-15.147-15.24-23.01-22.592-7.888-7.376-15.902-14.465-23.933-21.815-7.863-7.588-14.347-16.741-18.665-26.745-9.121-19.641-15.848-40.586-18.205-62.227a146.634 146.634 0 0 1-.082-32.564c.327-2.704.717-5.401 1.214-8.08.541-2.679 1.011-5.324 1.961-8.02.937-2.654 2.438-5.155 4.431-7.168 2.011-1.969 1.09-4.835 3.813-5.206Z" fill="#100200" stroke="#000" stroke-miterlimit="10"/></svg>

<svg width="800" height="800" viewBox="0 0 800 800" fill="none" xmlns="http://www.w3.org/2000/svg">
<path d="M442.432 649.507L470.82 685.714C470.82 685.714 496.626 700.538 499.001 710.041C501.377 719.544 491.874 714.793 491.874 714.793L444.36 669.655L442.432 649.507Z" fill="white" stroke="black" stroke-width="5" stroke-miterlimit="10"/>
<path d="M442.432 649.507L470.82 685.714C470.82 685.714 496.626 700.538 499.001 710.041C501.377 719.544 491.874 714.793 491.874 714.793L444.36 669.655L442.432 649.507Z" stroke="black" stroke-width="5" stroke-miterlimit="10"/>
<path d="M444.606 670.092C441.771 654.506 440.339 616.284 443.864 596.082C445.323 587.698 461.388 558.103 446.736 534.242C429.63 506.386 403.701 461.723 415.311 443.041C423.738 429.487 390.763 419.483 390.763 419.483C390.763 419.483 396.009 453.137 388.434 466.797C380.864 480.458 361.484 496.099 361.673 525.401C361.859 554.698 368.391 579.643 369.381 602.212C370.37 624.781 361.877 663.827 358.835 672.032L396.846 712.419L444.606 670.092Z" fill="white" stroke="black" stroke-width="5" stroke-miterlimit="10"/>
<path d="M444.606 670.092C441.771 654.506 440.339 616.284 443.864 596.082C445.323 587.698 461.388 558.103 446.736 534.242C429.63 506.386 403.701 461.723 415.311 443.041C423.738 429.487 390.763 419.483 390.763 419.483C390.763 419.483 396.009 453.137 388.434 466.797C380.864 480.458 361.484 496.099 361.673 525.401C361.859 554.698 368.391 579.643 369.381 602.212C370.37 624.781 361.877 663.827 358.835 672.032L396.846 712.419L444.606 670.092Z" stroke="black" stroke-width="5" stroke-miterlimit="10"/>
<path d="M364.074 557.736C378.557 566.942 397.608 573.781 412.13 559.26C412.13 559.26 429.901 537.458 420.234 516.858C407.625 490.001 372.296 490.001 372.296 490.001" stroke="black" stroke-width="5" stroke-miterlimit="10"/>
<path d="M376.671 483.506C376.671 483.506 412.244 487.981 422.63 507.977C426.498 515.42 434.857 522.362 439.608 519.986" stroke="black" stroke-width="5" stroke-miterlimit="10"/>
<path d="M383.279 383.379C379.192 368.221 360.663 334.284 326.97 361.272C305.581 378.405 271.574 400.863 247.818 392.822C224.056 384.784 238.327 441.769 271.041 447.272C303.755 452.775 336.214 435.394 347.374 409.083C358.533 382.774 383.279 383.379 383.279 383.379Z" fill="#100200" stroke="black" stroke-width="5" stroke-miterlimit="10"/>
<path d="M390.318 436.748C385.209 429.83 387.863 422.081 385.306 412.973C381.243 398.508 397.426 381.802 414.182 380.731C436.308 379.319 446.91 457.691 434.347 460.593C426.906 462.31 412.395 457.624 400.887 446.328C397.185 442.697 390.318 436.748 390.318 436.748Z" fill="white" stroke="black" stroke-width="5" stroke-miterlimit="10"/>
<path d="M390.318 436.748C385.209 429.83 387.863 422.081 385.306 412.973C381.243 398.508 397.426 381.802 414.182 380.731C436.308 379.319 446.91 457.691 434.347 460.593C426.906 462.31 412.395 457.624 400.887 446.328C397.185 442.697 390.318 436.748 390.318 436.748Z" stroke="black" stroke-width="5" stroke-miterlimit="10"/>
<path d="M424.49 388.773C425.873 402.579 418.752 428.728 400.918 426.299C380.866 423.568 390.197 434.233 392.164 437.709C394.131 441.184 404.414 446.963 402.603 448.237C400.79 449.513 372.773 442.817 367.739 423.274C362.703 403.73 366.291 392.8 375.857 385.44C385.421 378.078 406.686 374.441 417.724 379.548C428.763 384.654 424.49 388.773 424.49 388.773Z" fill="#100200" stroke="black" stroke-width="5" stroke-miterlimit="10"/>
<path d="M363.587 650.649C380.411 617.009 435.665 670.706 444.36 669.654C460.99 674.406 551.266 750.428 560.768 767.057C566.665 777.371 563.144 778.935 560.768 783.686C558.393 788.437 556.017 793.189 522.758 793.189C489.498 793.189 427.73 771.809 415.852 764.681C403.974 757.553 389.719 757.554 384.968 757.554C380.217 757.554 375.465 767.057 375.465 767.057C375.465 767.057 370.714 776.56 375.465 781.311C380.217 786.062 377.841 786.062 377.841 786.062C377.841 786.062 358.835 788.437 356.46 783.686C354.085 778.935 354.085 776.56 354.085 769.432C354.085 762.305 358.836 759.929 358.836 752.803C358.836 745.676 358.836 740.925 361.212 736.174C363.587 731.422 373.09 736.174 373.09 736.174L399.222 743.3C389.719 740.925 382.593 738.549 382.593 738.549C374.345 735.803 368.403 734.593 363.587 731.422C363.587 731.422 346.958 717.168 346.958 698.162C346.958 679.157 354.085 667.279 354.085 667.279C354.085 667.279 361.211 655.4 363.587 650.649Z" fill="white" stroke="black" stroke-width="5" stroke-miterlimit="10"/>
<path d="M363.587 650.649C380.411 617.009 435.665 670.706 444.36 669.654C460.99 674.406 551.266 750.428 560.768 767.057C566.665 777.371 563.144 778.935 560.768 783.686C558.393 788.437 556.017 793.189 522.758 793.189C489.498 793.189 427.73 771.809 415.852 764.681C403.974 757.553 389.719 757.554 384.968 757.554C380.217 757.554 375.465 767.057 375.465 767.057C375.465 767.057 370.714 776.56 375.465 781.311C380.217 786.062 377.841 786.062 377.841 786.062C377.841 786.062 358.835 788.437 356.46 783.686C354.085 778.935 354.085 776.56 354.085 769.432C354.085 762.305 358.836 759.929 358.836 752.803C358.836 745.676 358.836 740.925 361.212 736.174C363.587 731.422 373.09 736.174 373.09 736.174L399.222 743.3C389.719 740.925 382.593 738.549 382.593 738.549C374.345 735.803 368.403 734.593 363.587 731.422C363.587 731.422 346.958 717.168 346.958 698.162C346.958 679.157 354.085 667.279 354.085 667.279C354.085 667.279 361.211 655.4 363.587 650.649Z" stroke="black" stroke-width="5" stroke-miterlimit="10"/>
<path d="M513.255 778.935C513.255 778.935 481.188 758.325 437.298 753.076C435.67 752.881 434.05 752.612 432.449 752.232C424.51 750.337 399.546 744.298 397.231 742.757" stroke="black" stroke-width="5" stroke-miterlimit="10"/>
<path d="M372.5 490.5C372.5 490.5 366.932 495.749 364.073 507.866C361.446 518.997 353.217 559.973 381.327 618.107C386.092 627.963 392.846 636.707 401.021 643.985C417.425 658.589 446.429 684.979 451.487 693.411C458.614 705.288 487.122 719.543 491.873 721.919C496.624 724.294 501.376 719.543 499 714.792C496.624 710.04 463.365 676.781 458.614 676.781C454.412 676.781 433.496 650.474 417.211 627.949C413.127 622.302 410.55 615.734 409.667 608.821C407.458 591.584 403.305 557.442 401.598 531.864" fill="white"/>
<path d="M372.5 490.5C372.5 490.5 366.932 495.749 364.073 507.866C361.446 518.997 353.217 559.973 381.327 618.107C386.092 627.963 392.846 636.707 401.021 643.985C417.425 658.589 446.429 684.979 451.487 693.411C458.614 705.288 487.122 719.543 491.873 721.919C496.624 724.294 501.376 719.543 499 714.792C496.624 710.04 463.365 676.781 458.614 676.781C454.412 676.781 433.496 650.474 417.211 627.949C413.127 622.302 410.55 615.734 409.667 608.821C407.458 591.584 403.305 557.442 401.598 531.864" stroke="black" stroke-width="5" stroke-miterlimit="10"/>
<path d="M372 492.5C367.048 494.852 367.507 500.781 365.929 505.625C364.495 510.581 363.567 515.986 362.962 521.248C361.822 531.869 361.855 542.634 363.09 553.269C365.446 574.584 372.115 595.265 381.169 614.688C385.419 624.492 391.676 633.264 399.332 640.644C407.226 647.845 415.381 655.042 423.262 662.392C431.163 669.759 439.045 677.142 446.454 685.096C448.303 687.103 450.109 689.133 451.765 691.429L454.031 694.691C454.881 695.662 455.677 696.673 456.632 697.568C460.36 701.248 464.687 704.417 469.123 707.377C473.575 710.329 478.19 713.066 482.89 715.65C485.242 716.94 487.609 718.198 489.998 719.418C491.148 719.977 492.518 720.771 493.389 721.005C494.373 721.262 495.408 721.172 496.271 720.68C498.062 719.709 498.754 717.381 497.778 715.495C497.335 714.647 496.389 713.528 495.574 712.545C494.72 711.539 493.834 710.538 492.932 709.55C489.325 705.599 485.552 701.759 481.733 697.98C477.909 694.206 474.012 690.5 470.021 686.921C468.022 685.138 465.999 683.384 463.925 681.732C462.893 680.9 461.838 680.117 460.778 679.391C460.242 679.041 459.716 678.72 459.206 678.46C459.029 678.403 458.651 678.206 458.663 678.256C458.647 678.251 458.633 678.243 458.616 678.228L458.17 678.168C457.805 678.121 457.576 678.024 457.369 677.931C455.692 677.161 454.781 676.224 453.683 675.295C452.655 674.356 451.67 673.388 450.72 672.4C448.818 670.433 447.012 668.403 445.231 666.355C441.676 662.252 438.267 658.053 434.903 653.819C428.202 645.31 421.753 636.7 415.432 627.853C412.286 623.245 410.073 618.016 408.923 612.568C408.329 609.812 408.111 607.109 407.752 604.448L406.775 596.414C404.233 574.975 401.865 553.515 400.412 531.944L400.334 530.761L402.696 530.603L402.783 531.789C404.323 553.263 406.783 574.697 409.413 596.092L410.423 604.114C410.797 606.796 411.033 609.478 411.594 611.995C412.69 617.096 414.784 621.98 417.742 626.27C423.995 634.949 430.533 643.577 437.197 651.998C440.536 656.216 443.923 660.397 447.429 664.453C449.18 666.476 450.958 668.482 452.801 670.392C453.72 671.347 454.657 672.276 455.618 673.155C456.546 673.983 457.65 674.923 458.449 675.259C458.549 675.311 458.632 675.341 458.606 675.319C458.628 675.321 458.567 675.331 458.658 675.347L459.107 675.409C459.803 675.512 460.008 675.709 460.465 675.871C461.156 676.223 461.78 676.607 462.374 676.998C463.539 677.796 464.643 678.627 465.713 679.485C467.857 681.198 469.905 682.979 471.926 684.794C475.963 688.423 479.876 692.158 483.726 695.967C487.568 699.779 491.352 703.645 495.01 707.665C495.926 708.669 496.827 709.688 497.718 710.737C498.599 711.841 499.477 712.753 500.303 714.287C501.02 715.753 501.237 717.57 500.748 719.219C500.294 720.884 499.096 722.271 497.621 723.115C496.133 723.965 494.281 724.127 492.67 723.69C490.955 723.152 490.011 722.484 488.735 721.886C486.322 720.649 483.933 719.375 481.558 718.067C476.811 715.446 472.139 712.671 467.606 709.658C463.088 706.625 458.665 703.392 454.709 699.485C453.705 698.532 452.818 697.42 451.899 696.357L449.554 692.975C448.058 690.896 446.283 688.877 444.476 686.917C437.193 679.072 429.329 671.677 421.466 664.325C413.578 656.949 405.564 649.86 397.533 642.51C389.67 634.922 383.186 625.769 378.868 615.765C369.747 596.124 363.02 575.179 360.663 553.538C359.423 542.741 359.403 531.797 360.581 520.974C360.908 518.27 361.298 515.573 361.795 512.894C362.336 510.215 362.806 507.57 363.756 504.874C364.693 502.22 366.194 499.719 368.187 497.706C370.198 495.737 369.277 492.871 372 492.5Z" fill="#100200" stroke="black" stroke-miterlimit="10"/>
</svg>
